src/icons/brands/ecomdash.svg

<svg fill="none" viewBox="0 0 50 49" xmlns="http://www.w3.org/2000/svg"><path d="m25.3349 8.17236c2.7604 0 5.3383.54717 7.7339 1.63878 2.3955 1.09436 4.4862 2.58066 6.2665 4.45626 1.7831 1.8784 3.1823 4.0643 4.1977 6.5551 1.0154 2.4909 1.5244 5.1178 1.5244 7.8781 0 2.7604-.509 5.3383-1.5244 7.7339-1.0181 2.3955-2.4146 4.4835-4.1977 6.2692-1.783 1.7831-3.871 3.1796-6.2665 4.195-2.3956 1.0181-4.9763 1.5244-7.7339 1.5244-2.7603 0-5.3873-.5063-7.8781-1.5244-2.4935-1.0154-4.6768-2.4146-6.5551-4.195-1.87834-1.783-3.36195-3.8737-4.45628-6.2692-1.09161-2.3956-1.63878-4.9735-1.63878-7.7339 0-2.7603.54717-5.3845 1.63878-7.8781 1.09161-2.4908 2.57794-4.6767 4.45628-6.5551 1.8783-1.8783 4.0643-3.3646 6.5551-4.45626 2.4936-1.09433 5.1178-1.63878 7.8781-1.63878zm0 10.23284c-1.3801 0-2.6923.2777-3.939.8357-1.2468.5554-2.3384 1.304-3.2776 2.2431-.9392.9392-1.6878 2.0308-2.2431 3.2776s-.833 2.5589-.833 3.939c0 1.3802.2777 2.695.833 3.9418s1.3012 2.3275 2.2431 3.2476c.9392.9229 2.0308 1.6606 3.2776 2.2159 1.2467.5553 2.5589.8357 3.939.8357 1.3802 0 2.646-.2776 3.7948-.8357 1.1515-.5526 2.1478-1.293 2.989-2.2159.8439-.9174 1.4945-2.0008 1.9546-3.2476.46-1.2468.6914-2.5589.6914-3.9418 0-1.3774-.2314-2.6895-.6914-3.939-.4601-1.2468-1.1134-2.3384-1.9546-3.2776-.8439-.9364-1.8375-1.6877-2.989-2.2431-1.1488-.5553-2.4146-.8357-3.7948-.8357z" fill="#000"/><g fill="#7ac143"><path d="m47.3679.838367c-.9229-.588-12.1275 11.580333-22.2896 22.991933-2.4445-.1552-4.7122 1.4618-5.2811 3.9254-.6316 2.744 1.078 5.4771 3.822 6.1087 2.7413.6315 5.4744-1.0808 6.1059-3.8193.2532-1.0998.1171-2.186-.294-3.1469 9.1358-12.1438 18.8678-25.47183 17.9368-26.059833z"/><path d="m31.0095 27.0482c.3539 1.1161.4246 2.3356.1089 3.547-.8902 3.4218-4.3855 5.4744-7.8074 4.5842-3.4218-.8901-5.4744-4.3882-4.5842-7.8073.6588-2.5317 2.7467-4.3066 5.1749-4.7013l1.3448-1.4101c-3.5634-.1552-6.8763 2.1805-7.81 5.7738-1.0753 4.1351 1.4046 8.3573 5.5397 9.4353 4.135 1.0752 8.3572-1.4047 9.4325-5.537.4519-1.7341.2477-3.4736-.4138-4.998z"/></g></svg>

<svg viewBox="0 0 50 49" fill="none" xmlns="http://www.w3.org/2000/svg">
  <path
    d="M25.3349 8.17236C28.0953 8.17236 30.6732 8.71953 33.0688 9.81114C35.4643 10.9055 37.555 12.3918 39.3353 14.2674C41.1184 16.1458 42.5176 18.3317 43.533 20.8225C44.5484 23.3134 45.0574 25.9403 45.0574 28.7006C45.0574 31.461 44.5484 34.0389 43.533 36.4345C42.5149 38.83 41.1184 40.918 39.3353 42.7037C37.5523 44.4868 35.4643 45.8833 33.0688 46.8987C30.6732 47.9168 28.0925 48.4231 25.3349 48.4231C22.5746 48.4231 19.9476 47.9168 17.4568 46.8987C14.9633 45.8833 12.78 44.4841 10.9017 42.7037C9.02336 40.9207 7.53975 38.83 6.44542 36.4345C5.35381 34.0389 4.80664 31.461 4.80664 28.7006C4.80664 25.9403 5.35381 23.3161 6.44542 20.8225C7.53703 18.3317 9.02336 16.1458 10.9017 14.2674C12.78 12.3891 14.966 10.9028 17.4568 9.81114C19.9504 8.71681 22.5746 8.17236 25.3349 8.17236ZM25.3349 18.4052C23.9548 18.4052 22.6426 18.6829 21.3959 19.2409C20.1491 19.7963 19.0575 20.5449 18.1183 21.484C17.1791 22.4232 16.4305 23.5148 15.8752 24.7616C15.3199 26.0084 15.0422 27.3205 15.0422 28.7006C15.0422 30.0808 15.3199 31.3956 15.8752 32.6424C16.4305 33.8892 17.1764 34.9699 18.1183 35.89C19.0575 36.8129 20.1491 37.5506 21.3959 38.1059C22.6426 38.6612 23.9548 38.9416 25.3349 38.9416C26.7151 38.9416 27.9809 38.664 29.1297 38.1059C30.2812 37.5533 31.2775 36.8129 32.1187 35.89C32.9626 34.9726 33.6132 33.8892 34.0733 32.6424C34.5333 31.3956 34.7647 30.0835 34.7647 28.7006C34.7647 27.3232 34.5333 26.0111 34.0733 24.7616C33.6132 23.5148 32.9599 22.4232 32.1187 21.484C31.2748 20.5476 30.2812 19.7963 29.1297 19.2409C27.9809 18.6856 26.7151 18.4052 25.3349 18.4052Z"
    fill="black"
  />
  <path
    d="M47.3679 0.838367C46.445 0.250367 35.2404 12.4187 25.0783 23.8303C22.6338 23.6751 20.3661 25.2921 19.7972 27.7557C19.1656 30.4997 20.8752 33.2328 23.6192 33.8644C26.3605 34.4959 29.0936 32.7836 29.7251 30.0451C29.9783 28.9453 29.8422 27.8591 29.4311 26.8982C38.5669 14.7544 48.2989 1.42637 47.3679 0.838367Z"
    fill="#7AC143"
  />
  <path
    d="M31.0095 27.0482C31.3634 28.1643 31.4341 29.3838 31.1184 30.5952C30.2282 34.017 26.7329 36.0696 23.311 35.1794C19.8892 34.2893 17.8366 30.7912 18.7268 27.3721C19.3856 24.8404 21.4735 23.0655 23.9017 22.6708L25.2465 21.2607C21.6831 21.1055 18.3702 23.4412 17.4365 27.0345C16.3612 31.1696 18.8411 35.3918 22.9762 36.4698C27.1112 37.545 31.3334 35.0651 32.4087 30.9328C32.8606 29.1987 32.6564 27.4592 31.9949 25.9348L31.0095 27.0482Z"
    fill="#7AC143"
  />
</svg>
